symbols/web/smart_screen/materialsymbolsoutlined/smart_screen_wght300_20px.svg

<svg xmlns="http://www.w3.org/2000/svg" height="20" width="20"><path d="M11.042 10.604q-.25 0-.427-.177T10.438 10q0-.25.177-.427t.427-.177q.25 0 .427.177t.177.427q0 .25-.177.427t-.427.177Zm-4.125 0q-.25 0-.427-.177-.178-.177-.178-.427t.178-.427q.177-.177.427-.177t.427.177q.177.177.177.427t-.177.427q-.177.177-.427.177Zm6.187 0q-.25 0-.427-.177T12.5 10q0-.25.177-.427t.427-.177q.25 0 .427.177t.177.427q0 .25-.177.427t-.427.177Zm-4.125 0q-.25 0-.427-.177T8.375 10q0-.25.177-.427t.427-.177q.25 0 .427.177t.177.427q0 .25-.177.427t-.427.177Zm-6.146 4.813q-.666 0-1.125-.459-.458-.458-.458-1.125V6.167q0-.667.458-1.125.459-.459 1.125-.459h14.334q.666 0 1.125.459.458.458.458 1.125v7.666q0 .667-.458 1.125-.459.459-1.125.459ZM5 14.083h10V5.917H5Zm-1.333 0V5.917h-.834q-.083 0-.166.083-.084.083-.084.167v7.666q0 .084.084.167.083.083.166.083Zm12.666 0h.834q.083 0 .166-.083.084-.083.084-.167V6.167q0-.084-.084-.167-.083-.083-.166-.083h-.834Zm1.084-8.166h-1.084H17.417Zm-14.834 0h1.084H2.583Z"/></svg>

<svg xmlns="http://www.w3.org/2000/svg" height="20" width="20"><path d="M11.042 10.604Q10.792 10.604 10.615 10.427Q10.438 10.25 10.438 10Q10.438 9.75 10.615 9.573Q10.792 9.396 11.042 9.396Q11.292 9.396 11.469 9.573Q11.646 9.75 11.646 10Q11.646 10.25 11.469 10.427Q11.292 10.604 11.042 10.604ZM6.917 10.604Q6.667 10.604 6.49 10.427Q6.312 10.25 6.312 10Q6.312 9.75 6.49 9.573Q6.667 9.396 6.917 9.396Q7.167 9.396 7.344 9.573Q7.521 9.75 7.521 10Q7.521 10.25 7.344 10.427Q7.167 10.604 6.917 10.604ZM13.104 10.604Q12.854 10.604 12.677 10.427Q12.5 10.25 12.5 10Q12.5 9.75 12.677 9.573Q12.854 9.396 13.104 9.396Q13.354 9.396 13.531 9.573Q13.708 9.75 13.708 10Q13.708 10.25 13.531 10.427Q13.354 10.604 13.104 10.604ZM8.979 10.604Q8.729 10.604 8.552 10.427Q8.375 10.25 8.375 10Q8.375 9.75 8.552 9.573Q8.729 9.396 8.979 9.396Q9.229 9.396 9.406 9.573Q9.583 9.75 9.583 10Q9.583 10.25 9.406 10.427Q9.229 10.604 8.979 10.604ZM2.833 15.417Q2.167 15.417 1.708 14.958Q1.25 14.5 1.25 13.833V6.167Q1.25 5.5 1.708 5.042Q2.167 4.583 2.833 4.583H17.167Q17.833 4.583 18.292 5.042Q18.75 5.5 18.75 6.167V13.833Q18.75 14.5 18.292 14.958Q17.833 15.417 17.167 15.417ZM5 14.083H15V5.917H5ZM3.667 14.083V5.917H2.833Q2.75 5.917 2.667 6Q2.583 6.083 2.583 6.167V13.833Q2.583 13.917 2.667 14Q2.75 14.083 2.833 14.083ZM16.333 14.083H17.167Q17.25 14.083 17.333 14Q17.417 13.917 17.417 13.833V6.167Q17.417 6.083 17.333 6Q17.25 5.917 17.167 5.917H16.333ZM17.417 5.917Q17.417 5.917 17.344 5.917Q17.271 5.917 17.167 5.917H16.333H17.167Q17.271 5.917 17.344 5.917Q17.417 5.917 17.417 5.917ZM2.583 5.917Q2.583 5.917 2.656 5.917Q2.729 5.917 2.833 5.917H3.667H2.833Q2.729 5.917 2.656 5.917Q2.583 5.917 2.583 5.917Z"/></svg>
